status/symbolic/weather-showers-symbolic.svg

<?xml version="1.0" encoding="UTF-8" standalone="no"?>
<!-- Created with Inkscape (http://www.inkscape.org/) -->

<svg
   xmlns:osb="http://www.openswatchbook.org/uri/2009/osb"
   xmlns:dc="http://purl.org/dc/elements/1.1/"
   xmlns:cc="http://creativecommons.org/ns#"
   xmlns:rdf="http://www.w3.org/1999/02/22-rdf-syntax-ns#"
   xmlns:svg="http://www.w3.org/2000/svg"
   xmlns="http://www.w3.org/2000/svg"
   xmlns:sodipodi="http://sodipodi.sourceforge.net/DTD/sodipodi-0.dtd"
   xmlns:inkscape="http://www.inkscape.org/namespaces/inkscape"
   sodipodi:docname="weather-showers-symbolic.svg"
   inkscape:export-filename="/home/sam/source-symbolic.png"
   inkscape:export-xdpi="270"
   inkscape:export-ydpi="270"
   height="16"
   id="svg7384"
   style="enable-background:new"
   version="1.1"
   inkscape:version="0.91 r13725"
   width="16.000196">
  <sodipodi:namedview
     inkscape:bbox-nodes="true"
     inkscape:bbox-paths="true"
     bordercolor="#666666"
     borderlayer="false"
     borderopacity="1"
     inkscape:current-layer="svg7384"
     inkscape:cx="9.0041738"
     inkscape:cy="8.0774406"
     gridtolerance="10"
     inkscape:guide-bbox="true"
     guidetolerance="10"
     id="namedview88"
     inkscape:object-nodes="true"
     inkscape:object-paths="true"
     objecttolerance="10"
     pagecolor="#f7f7f7"
     inkscape:pageopacity="1"
     inkscape:pageshadow="2"
     showborder="true"
     showgrid="false"
     showguides="true"
     inkscape:showpageshadow="false"
     inkscape:snap-bbox="true"
     inkscape:snap-bbox-edge-midpoints="false"
     inkscape:snap-bbox-midpoints="false"
     inkscape:snap-center="false"
     inkscape:snap-global="true"
     inkscape:snap-grids="true"
     inkscape:snap-intersection-paths="true"
     inkscape:snap-midpoints="true"
     inkscape:snap-nodes="true"
     inkscape:snap-object-midpoints="true"
     inkscape:snap-others="true"
     inkscape:snap-page="false"
     inkscape:snap-smooth-nodes="true"
     inkscape:snap-to-guides="true"
     inkscape:window-height="701"
     inkscape:window-maximized="0"
     inkscape:window-width="1362"
     inkscape:window-x="0"
     inkscape:window-y="28"
     inkscape:zoom="32">
    <inkscape:grid
       color="#000000"
       dotted="false"
       empcolor="#0800ff"
       empopacity="0.4627451"
       empspacing="4"
       enabled="true"
       id="grid4866"
       opacity="0.16470588"
       originx="-244px"
       originy="-548.00336px"
       snapvisiblegridlinesonly="true"
       spacingx="0.25px"
       spacingy="0.25px"
       type="xygrid"
       visible="true" />
  </sodipodi:namedview>
  <metadata
     id="metadata90">
    <rdf:RDF>
      <cc:Work
         rdf:about="">
        <dc:format>image/svg+xml</dc:format>
        <dc:type
           rdf:resource="http://purl.org/dc/dcmitype/StillImage" />
        <dc:title>Paper Symbolic Icon Theme</dc:title>
      </cc:Work>
    </rdf:RDF>
  </metadata>
  <title
     id="title8473">Paper Symbolic Icon Theme</title>
  <defs
     id="defs7386">
    <linearGradient
       id="linearGradient5606"
       osb:paint="solid">
      <stop
         id="stop5608"
         offset="0"
         style="stop-color:#000000;stop-opacity:1;" />
    </linearGradient>
    <filter
       id="filter7554-8"
       color-interpolation-filters="sRGB">
      <feBlend
         id="feBlend7556-7"
         in2="BackgroundImage"
         mode="darken" />
    </filter>
    <filter
       id="filter7554-8-1"
       color-interpolation-filters="sRGB">
      <feBlend
         id="feBlend7556-7-9"
         in2="BackgroundImage"
         mode="darken" />
    </filter>
  </defs>
  <path
     style="fill:#bebebe;fill-opacity:1"
     d="m 6.2124588,9.8823298 c 0.2890909,0.07636 0.4636363,0.3763642 0.3872727,0.6654552 L 5.8906406,13.18233 C 5.8142766,13.476876 5.5142769,13.645966 5.225186,13.569603 4.9306406,13.493243 4.7615497,13.193239 4.8488224,12.904148 L 5.5470042,10.269603 C 5.6233682,9.9750568 5.9233679,9.8059658 6.2124588,9.8823298"
     id="path10066"
     inkscape:connector-curvature="0" />
  <path
     style="fill:#bebebe;fill-opacity:1"
     d="m 8.3942769,9.8823298 c 0.289091,0.07636 0.4636364,0.3763642 0.3872728,0.6654552 l -1.1290909,4.216363 c -0.076364,0.3 -0.3763637,0.463637 -0.6709091,0.387273 C 6.6924588,15.064151 6.5179133,14.775057 6.594277,14.480512 L 7.7288224,10.269603 C 7.8051864,9.9750568 8.105186,9.8059658 8.3942769,9.8823298"
     id="path10064"
     inkscape:connector-curvature="0" />
  <path
     style="fill:#bebebe;fill-opacity:1"
     d="m 10.576095,9.8823298 c 0.289091,0.07636 0.463637,0.3763642 0.387273,0.6654552 L 10.254277,13.18233 C 10.177917,13.476876 9.8779128,13.645966 9.5888224,13.569603 9.2942769,13.493243 9.125186,13.193239 9.2124588,12.904148 l 0.698182,-2.634545 C 9.9870008,9.9750568 10.287004,9.8059658 10.576095,9.8823298"
     id="path10062"
     inkscape:connector-curvature="0" />
  <path
     style="fill:#bebebe;fill-opacity:1"
     d="m 10.727273,8.7090701 0,-0.588634 A 2.7272727,2.9431699 0 0 0 8,5.1772671 c -1.3636363,0 -2.4818182,1.071313 -2.6945456,2.466375 -0.1799999,-0.07063 -0.3763635,-0.111839 -0.5781817,-0.111839 a 1.6363636,1.7659019 0 0 0 -1.6363636,1.765902 c 0,0.653384 0.3272727,1.2243579 0.8181818,1.5304469 l 0,-0.006 c 0.2727273,0.164818 0.3490909,0.535658 0.2018182,0.80643 -0.1527273,0.276657 -0.4745455,0.376725 -0.7472727,0.211908 l 0,0.006 C 2.5454545,11.340264 2,10.386677 2,9.2977051 a 2.7272727,2.9431699 0 0 1 2.7272727,-2.94317 c 0.5454546,-1.383289 1.8,-2.354536 3.2727273,-2.354536 1.870909,0 3.403636,1.565767 3.545454,3.549464 l 0.272728,-0.01765 A 2.1818181,2.3545359 0 0 1 14,9.8863491 c 0,0.8829519 -0.436363,1.6305169 -1.090909,2.0366739 l 0,0 c -0.272728,0.158928 -0.594546,0.06474 -0.747273,-0.217799 -0.147273,-0.282545 -0.07091,-0.64161 0.201818,-0.806428 l 0,0.006 c 0.327273,-0.200202 0.545455,-0.582815 0.545455,-1.0184029 a 1.0909091,1.177268 0 0 0 -1.090909,-1.177323 l -1.090909,0 z"
     id="path10031"
     inkscape:connector-curvature="0" />
</svg>

<svg xmlns="http://www.w3.org/2000/svg" viewBox="0 0 16 16">
  <g fill="#bebebe">
    <path d="M6.212 9.882a.545.545 0 0 1 .387.665l-.708 2.635a.544.544 0 0 1-.666.388.529.529 0 0 1-.376-.666l.698-2.634a.542.542 0 0 1 .665-.388m2.182 0a.545.545 0 0 1 .387.665l-1.129 4.216a.54.54 0 0 1-.671.387.553.553 0 0 1-.387-.669l1.135-4.211a.542.542 0 0 1 .665-.388m2.182 0a.545.545 0 0 1 .387.665l-.709 2.635a.542.542 0 0 1-.665.388.529.529 0 0 1-.377-.666l.698-2.635a.544.544 0 0 1 .666-.387"/>
    <path d="M10.727 8.709V8.12A2.727 2.943 0 0 0 8 5.177c-1.364 0-2.482 1.071-2.695 2.466a1.577 1.577 0 0 0-.578-.112 1.636 1.766 0 0 0-1.636 1.766c0 .653.327 1.224.818 1.53v-.006c.273.165.349.536.202.806-.153.277-.475.377-.747.212v.006C2.545 11.34 2 10.387 2 9.298a2.727 2.943 0 0 1 2.727-2.943C5.272 4.972 6.527 4 8 4c1.871 0 3.404 1.566 3.545 3.549l.273-.018A2.182 2.355 0 0 1 14 9.886c0 .883-.436 1.631-1.091 2.037a.526.526 0 0 1-.747-.218c-.147-.283-.071-.642.202-.806v.006c.327-.2.545-.583.545-1.018a1.091 1.177 0 0 0-1.091-1.177h-1.091z"/>
  </g>
</svg>
